flaticon/essential/diploma.svg

<svg xmlns="http://www.w3.org/2000/svg" width="32" height="32" viewBox="0 0 24 24">
    <path d="M 15.566406 0 L 2.601562 0 L 2.601562 24 L 21.398438 24 L 21.398438 5.835938 Z M 15.800781 1.367188 L 20.035156 5.601562 L 15.800781 5.601562 Z M 3.398438 23.199219 L 3.398438 0.800781 L 15 0.800781 L 15 6.398438 L 20.601562 6.398438 L 20.601562 23.199219 Z M 3.398438 23.199219"/>
    <path d="M6.601562 6.800781L10.199219 6.800781C10.421875 6.800781 10.601562 6.621094 10.601562 6.398438 10.601562 6.179688 10.421875 6 10.199219 6L6.601562 6C6.378906 6 6.199219 6.179688 6.199219 6.398438 6.199219 6.621094 6.378906 6.800781 6.601562 6.800781zM6.601562 10L8.601562 10C8.820312 10 9 9.820312 9 9.601562 9 9.378906 8.820312 9.199219 8.601562 9.199219L6.601562 9.199219C6.378906 9.199219 6.199219 9.378906 6.199219 9.601562 6.199219 9.820312 6.378906 10 6.601562 10zM12.601562 10L15.398438 10C15.621094 10 15.800781 9.820312 15.800781 9.601562 15.800781 9.378906 15.621094 9.199219 15.398438 9.199219L12.601562 9.199219C12.378906 9.199219 12.199219 9.378906 12.199219 9.601562 12.199219 9.820312 12.378906 10 12.601562 10zM10.316406 9.320312C10.238281 9.390625 10.199219 9.496094 10.199219 9.601562 10.199219 9.703125 10.238281 9.808594 10.316406 9.882812 10.390625 9.957031 10.496094 10 10.601562 10 10.703125 10 10.808594 9.960938 10.882812 9.878906 10.957031 9.808594 11 9.703125 11 9.601562 11 9.496094 10.957031 9.390625 10.882812 9.316406 10.730469 9.167969 10.464844 9.167969 10.316406 9.320312zM17.398438 10C17.503906 10 17.609375 9.957031 17.683594 9.882812 17.757812 9.808594 17.800781 9.703125 17.800781 9.601562 17.800781 9.496094 17.757812 9.390625 17.683594 9.316406 17.53125 9.167969 17.269531 9.167969 17.117188 9.316406 17.042969 9.390625 17 9.496094 17 9.601562 17 9.703125 17.042969 9.808594 17.117188 9.882812 17.191406 9.957031 17.296875 10 17.398438 10zM11.398438 12.398438L8.601562 12.398438C8.378906 12.398438 8.199219 12.578125 8.199219 12.800781 8.199219 13.019531 8.378906 13.199219 8.601562 13.199219L11.398438 13.199219C11.621094 13.199219 11.800781 13.019531 11.800781 12.800781 11.800781 12.578125 11.621094 12.398438 11.398438 12.398438zM6.601562 13.199219C6.703125 13.199219 6.808594 13.15625 6.882812 13.085938 6.960938 13.007812 7 12.902344 7 12.800781 7 12.695312 6.960938 12.589844 6.882812 12.515625 6.730469 12.367188 6.46875 12.367188 6.316406 12.515625 6.238281 12.589844 6.199219 12.691406 6.199219 12.800781 6.199219 12.902344 6.242188 13.007812 6.316406 13.085938 6.390625 13.15625 6.496094 13.199219 6.601562 13.199219zM7.859375 16.066406C6.980469 16.523438 6.6875 17.394531 6.578125 18.300781 6.414062 18.160156 6.25 18.023438 6.082031 17.882812 5.691406 17.554688 5.121094 18.117188 5.515625 18.449219 5.890625 18.761719 6.265625 19.074219 6.640625 19.390625 6.902344 19.609375 7.308594 19.472656 7.324219 19.105469 7.351562 18.242188 7.390625 17.210938 8.261719 16.757812 8.71875 16.519531 8.3125 15.828125 7.859375 16.066406zM10.519531 17.660156C9.964844 17.789062 9.332031 18.496094 8.945312 17.703125 8.714844 17.242188 8.027344 17.648438 8.253906 18.109375 8.460938 18.527344 8.851562 18.820312 9.320312 18.878906 9.558594 18.910156 9.773438 18.878906 9.996094 18.789062 10.160156 18.726562 10.769531 18.265625 10.902344 18.503906 11.152344 18.953125 11.84375 18.550781 11.59375 18.101562 11.378906 17.714844 10.945312 17.5625 10.519531 17.660156zM18.699219 13.804688C18.605469 13.773438 18.5625 13.703125 18.546875 13.664062 18.53125 13.625 18.511719 13.542969 18.554688 13.453125 18.746094 13.046875 18.664062 12.574219 18.34375 12.253906 18.023438 11.933594 17.554688 11.851562 17.144531 12.046875 17.054688 12.089844 16.976562 12.070312 16.9375 12.054688 16.898438 12.035156 16.828125 11.996094 16.792969 11.902344 16.644531 11.476562 16.253906 11.199219 15.800781 11.199219 15.347656 11.199219 14.957031 11.476562 14.804688 11.902344 14.773438 11.996094 14.703125 12.035156 14.664062 12.054688 14.625 12.070312 14.542969 12.089844 14.453125 12.046875 14.046875 11.855469 13.574219 11.933594 13.253906 12.253906 12.933594 12.574219 12.851562 13.046875 13.046875 13.453125 13.089844 13.542969 13.070312 13.625 13.054688 13.664062 13.035156 13.703125 12.996094 13.773438 12.902344 13.804688 12.476562 13.957031 12.199219 14.347656 12.199219 14.800781 12.199219 15.253906 12.476562 15.644531 12.902344 15.792969 12.996094 15.828125 13.035156 15.898438 13.054688 15.9375 13.070312 15.976562 13.089844 16.054688 13.046875 16.144531 12.851562 16.554688 12.933594 17.023438 13.253906 17.34375 13.410156 17.5 13.597656 17.597656 13.800781 17.636719L13.800781 22.566406 15.800781 20.566406 17.800781 22.566406 17.800781 17.636719C18 17.597656 18.191406 17.5 18.34375 17.34375 18.664062 17.023438 18.746094 16.554688 18.554688 16.144531 18.511719 16.054688 18.53125 15.976562 18.546875 15.9375 18.5625 15.898438 18.605469 15.828125 18.699219 15.792969 19.125 15.644531 19.398438 15.253906 19.398438 14.800781 19.398438 14.347656 19.125 13.957031 18.699219 13.804688zM15.800781 19.433594L14.601562 20.632812 14.601562 17.53125C14.605469 17.53125 14.605469 17.53125 14.609375 17.53125 14.628906 17.535156 14.648438 17.542969 14.664062 17.546875 14.683594 17.554688 14.710938 17.570312 14.734375 17.59375 14.761719 17.617188 14.789062 17.652344 14.804688 17.699219 14.957031 18.125 15.347656 18.398438 15.800781 18.398438 16.253906 18.398438 16.644531 18.125 16.792969 17.699219 16.8125 17.652344 16.835938 17.617188 16.863281 17.59375 16.890625 17.570312 16.917969 17.554688 16.9375 17.546875 16.949219 17.542969 16.96875 17.535156 16.988281 17.53125 16.992188 17.53125 16.996094 17.53125 17 17.53125L17 20.632812zM18.429688 15.042969C18.148438 15.140625 17.921875 15.355469 17.808594 15.632812 17.695312 15.90625 17.703125 16.21875 17.828125 16.488281 17.898438 16.636719 17.820312 16.742188 17.78125 16.78125 17.746094 16.8125 17.667969 16.871094 17.554688 16.847656L17.46875 16.820312C17.429688 16.804688 17.390625 16.796875 17.355469 16.785156 17.328125 16.773438 17.300781 16.761719 17.269531 16.757812 17.230469 16.746094 17.191406 16.746094 17.152344 16.742188 17.121094 16.738281 17.085938 16.730469 17.054688 16.730469 17.015625 16.730469 16.976562 16.734375 16.941406 16.738281 16.90625 16.742188 16.871094 16.742188 16.839844 16.746094 16.769531 16.761719 16.699219 16.78125 16.632812 16.808594 16.632812 16.808594 16.632812 16.808594 16.628906 16.808594 16.613281 16.816406 16.597656 16.828125 16.582031 16.835938 16.53125 16.859375 16.480469 16.882812 16.4375 16.914062 16.382812 16.953125 16.332031 16.996094 16.289062 17.042969 16.28125 17.046875 16.273438 17.050781 16.269531 17.058594 16.167969 17.164062 16.089844 17.289062 16.039062 17.429688 15.988281 17.582031 15.855469 17.601562 15.800781 17.601562 15.746094 17.601562 15.613281 17.582031 15.558594 17.429688 15.507812 17.289062 15.429688 17.164062 15.328125 17.054688 15.324219 17.050781 15.320312 17.050781 15.316406 17.042969 15.269531 16.996094 15.21875 16.953125 15.164062 16.914062 15.121094 16.882812 15.070312 16.863281 15.023438 16.839844 15.003906 16.828125 14.988281 16.816406 14.96875 16.808594 14.960938 16.804688 14.949219 16.804688 14.941406 16.800781 14.882812 16.777344 14.824219 16.757812 14.765625 16.746094 14.714844 16.738281 14.667969 16.734375 14.617188 16.734375 14.601562 16.730469 14.582031 16.726562 14.5625 16.726562 14.410156 16.726562 14.265625 16.757812 14.140625 16.816406L14.050781 16.847656C13.9375 16.871094 13.851562 16.8125 13.820312 16.78125 13.78125 16.742188 13.699219 16.636719 13.769531 16.488281 13.898438 16.21875 13.90625 15.90625 13.792969 15.628906 13.675781 15.355469 13.449219 15.140625 13.167969 15.039062 13.015625 14.988281 13 14.855469 13 14.800781 13 14.746094 13.015625 14.613281 13.171875 14.558594 13.449219 14.460938 13.675781 14.242188 13.792969 13.96875 13.90625 13.691406 13.898438 13.378906 13.769531 13.109375 13.699219 12.964844 13.78125 12.859375 13.820312 12.820312 13.859375 12.78125 13.964844 12.699219 14.109375 12.769531 14.378906 12.898438 14.691406 12.90625 14.96875 12.789062 15.246094 12.675781 15.460938 12.449219 15.558594 12.167969 15.613281 12.015625 15.746094 12 15.800781 12 15.855469 12 15.988281 12.015625 16.042969 12.171875 16.140625 12.449219 16.355469 12.675781 16.632812 12.792969 16.90625 12.90625 17.21875 12.898438 17.488281 12.769531 17.636719 12.699219 17.742188 12.78125 17.78125 12.820312 17.820312 12.859375 17.902344 12.964844 17.832031 13.109375 17.703125 13.378906 17.695312 13.691406 17.808594 13.96875 17.921875 14.246094 18.148438 14.460938 18.429688 14.558594 18.582031 14.613281 18.601562 14.746094 18.601562 14.800781 18.601562 14.855469 18.582031 14.988281 18.429688 15.042969zM18.429688 15.042969"/>
</svg>

<svg xmlns="http://www.w3.org/2000/svg" width="32" height="32" viewBox="0 0 24 24">
    <path d="M15.566 0H2.602v24h18.796V5.836zm.235 1.367l4.234 4.235h-4.234zM3.398 23.2V.801H15v5.597h5.602V23.2zm0 0"/>
    <path d="M6.602 6.8h3.597a.401.401 0 0 0 0-.8H6.602a.401.401 0 1 0 0 .8zm0 0M6.602 10h2a.4.4 0 0 0 0-.8h-2a.401.401 0 0 0 0 .8zm0 0M12.602 10h2.796a.401.401 0 1 0 0-.8h-2.796a.401.401 0 0 0 0 .8zm0 0M10.316 9.32a.377.377 0 0 0-.117.282c0 .101.04.207.117.28.075.075.18.118.286.118.101 0 .207-.04.28-.121A.39.39 0 0 0 11 9.602a.409.409 0 0 0-.117-.286.412.412 0 0 0-.567.004zm0 0M17.398 10c.106 0 .211-.043.286-.117a.406.406 0 0 0 .117-.281.409.409 0 0 0-.117-.286.416.416 0 0 0-.567 0 .409.409 0 0 0-.117.286c0 .101.043.207.117.28.074.075.18.118.281.118zm0 0M11.398 12.398H8.602a.401.401 0 0 0 0 .8l2.796.001a.401.401 0 1 0 0-.8zm0 0M6.602 13.2a.42.42 0 0 0 .28-.114.405.405 0 0 0 0-.57.416.416 0 0 0-.566 0 .386.386 0 0 0-.117.285c0 .101.043.207.117.285.075.07.18.113.286.113zm0 0M7.86 16.066c-.88.457-1.173 1.329-1.282 2.235-.164-.14-.328-.278-.496-.418-.39-.328-.96.234-.566.566.375.313.75.625 1.125.942.261.218.668.082.683-.286.028-.863.067-1.894.938-2.347.457-.238.05-.93-.403-.692zm0 0M10.52 17.66c-.555.13-1.188.836-1.575.043-.23-.46-.918-.055-.691.406.207.418.598.711 1.066.77.239.031.453 0 .676-.09.164-.062.774-.523.906-.285.25.45.942.047.692-.402-.215-.387-.649-.54-1.074-.442zm0 0M18.7 13.805a.247.247 0 0 1-.153-.14.264.264 0 0 1 .008-.212 1.05 1.05 0 0 0-.211-1.2c-.32-.32-.79-.401-1.2-.206a.255.255 0 0 1-.206.008.274.274 0 0 1-.145-.153 1.04 1.04 0 0 0-.992-.703c-.453 0-.844.278-.996.703a.259.259 0 0 1-.14.153.264.264 0 0 1-.212-.008 1.049 1.049 0 0 0-1.2.207c-.32.32-.401.793-.206 1.2.043.089.023.171.008.21a.259.259 0 0 1-.153.14 1.048 1.048 0 0 0-.703.997c0 .453.278.844.703.992a.274.274 0 0 1 .153.145.255.255 0 0 1-.008.207c-.195.41-.113.878.207 1.199.156.156.344.254.547.293v4.93l2-2 2 2v-4.93c.199-.04.39-.137.543-.293.32-.32.402-.79.21-1.2a.255.255 0 0 1-.007-.206.261.261 0 0 1 .152-.145c.426-.148.7-.54.7-.992 0-.453-.274-.844-.7-.996zm-2.9 5.629l-1.198 1.199V17.53h.007c.02.004.04.012.055.016a.22.22 0 0 1 .07.047.238.238 0 0 1 .07.105c.153.426.544.7.997.7.453 0 .844-.274.992-.7a.276.276 0 0 1 .07-.105.281.281 0 0 1 .075-.047c.011-.004.03-.012.05-.016H17v3.102zm2.63-4.391a1.04 1.04 0 0 0-.621.59c-.114.273-.106.586.02.855a.248.248 0 0 1-.048.293.256.256 0 0 1-.226.067l-.086-.028c-.04-.015-.078-.023-.114-.035-.027-.012-.054-.023-.085-.027-.04-.012-.079-.012-.118-.016-.03-.004-.066-.012-.097-.012-.04 0-.078.004-.114.008-.035.004-.07.004-.101.008-.07.016-.14.035-.207.063h-.004c-.016.007-.031.02-.047.027-.05.023-.102.047-.145.078a.95.95 0 0 0-.148.129c-.008.004-.016.008-.02.016-.101.105-.18.23-.23.37a.243.243 0 0 1-.238.173.25.25 0 0 1-.242-.172 1.094 1.094 0 0 0-.23-.375c-.005-.004-.009-.004-.013-.012a1.208 1.208 0 0 0-.152-.129c-.043-.031-.094-.05-.14-.074-.02-.012-.036-.024-.055-.031-.008-.004-.02-.004-.028-.008a1.011 1.011 0 0 0-.175-.055.95.95 0 0 0-.149-.012.23.23 0 0 0-.055-.007.996.996 0 0 0-.421.09l-.09.03a.26.26 0 0 1-.23-.066.247.247 0 0 1-.051-.293c.128-.27.136-.582.023-.86a1.08 1.08 0 0 0-.625-.589.239.239 0 0 1-.168-.238c0-.055.016-.188.172-.242.277-.098.504-.317.621-.59.113-.278.105-.59-.023-.86a.243.243 0 0 1 .05-.289.243.243 0 0 1 .29-.05c.269.128.581.136.859.02a1.04 1.04 0 0 0 .59-.622A.246.246 0 0 1 15.8 12c.054 0 .187.016.242.172a1.053 1.053 0 0 0 1.445.598.247.247 0 0 1 .293.05c.04.04.121.145.051.29-.129.269-.137.581-.023.859.113.277.34.492.62.59a.25.25 0 0 1 .173.242.25.25 0 0 1-.172.242zm0 0"/>
</svg>
